X: 187
T: No_46_Cow_Creek_Hunting_Dance_Song_(m).krn
N: Derived from No_46_Cow_Creek_Hunting_Dance_Song_(m).krn
%%abc-version 2.0
%%abcx-abcm2ps-target-version 5.9.1 (29 Sep 2008)
%%abc-creator hum2abc beta
%%abcx-conversion-date 2019/03/15 08:38:45
%%humdrum-veritas 1228485052
%%humdrum-veritas-data 2644648382
%%linebreak <none>
%%barnumbers 0
L: 1/8
M: 3/4
K: F clef=bass
[K:clef=bass][M:3/4]z4C3/A,/ | 
A,3G, A,3/F,/ | 
F,2F,2-F,A,/G,/ | 
F,D,D,2G,F, ||  
[M:2/4]D,3/D,/D,2 | 
D, z D,A,/F,/ ||  
[M:3/4]A,3G, A,3/F,/ | 
F,2F,2A,C | 
A,3G, A,3/F,/ | 
F,2F,2-F,A,/G,/ | 
F,D,D,2G,F, | 
D,3/D,/D,2D, z |]  



